X:1601
T:Jul i Östas Uvås
R:Polska
S:Komponerad Julen 2007
S:i Uvås utanför Järvsö
C:Jonas Hallgren
O:Stockholm, Sörmland
Z:ABC-transkribering av Jonas Hallgren
M:3/4
L:1/16
K:G
|: D3G- G3F G3A | G3F F3E D3E | (3:2:4 F2G2A4B4 c3d| c3B ~B3A B4 |
   D3G- G3F G3A | G3F F3E D3E | (3:2:4 F2G2A4B4 c3A| A3G G8 :|
|: z3B- B3c d3B | B3A ~A3G A3B | (3:2:4 c2B2c4d4 e3c | c3B- B3A B4- |
   B3B- B3c d3B | B3A ~A3G F3E | (3:2:4 D2E2F4G4 A3B | A3G G8 :| 
(:musicend:)
(:music:)
